X:2767
T:Polonäs ur Anders PlanMarcks notbok (nr 19)
B:Anders PlanMarcks notbok
B:http://www.smus.se/earkiv/fmk/browselarge.php?lang=sw&katalogid=M+132&bildnr=00008
O:Närke, Askersund
R:Slängpolska
Z:Nils L
N:Se även [[Musik/2551|+]]
M:3/4
L:1/8
K:DDor
a2 ab ^ga | f2 ef e^c | A2 A^c de | f2 fg e^g |S 
a2 ab ^ga | f2 ef d^c | A2 A^c de | f2 d4 ::
c2 ce ge | d2 d^c/d/ e2 | c2 ce ge | dB d^c A2 S:| x!D.C.!x
(:musicend:)
(:music:)
